build/img/ballon-tablet.svg

<svg xmlns="http://www.w3.org/2000/svg" width="22" height="28"><path fill-rule="evenodd" fill="#00FFD7" d="M10.608.812C5.452.995 1.169 5.066.675 10.262a10.626 10.626 0 00.138 3.01s.016.113.069.329c.16.721.399 1.421.697 2.078 1.037 2.488 3.437 6.651 8.821 11.18a.89.89 0 001.149 0c5.384-4.524 7.784-8.686 8.827-11.185.303-.657.537-1.352.697-2.079.048-.21.069-.328.069-.328a10.69 10.69 0 00.186-1.987c0-5.913-4.836-10.679-10.72-10.468zm.367 15.68c-2.778 0-5.028-2.277-5.028-5.088s2.25-5.089 5.028-5.089c2.777 0 5.027 2.278 5.027 5.089 0 2.811-2.25 5.088-5.027 5.088z"/></svg>

<svg 
 xmlns="http://www.w3.org/2000/svg"
 xmlns:xlink="http://www.w3.org/1999/xlink"
 width="22px" height="28px">
<path fill-rule="evenodd"  fill="rgb(0, 255, 215)"
 d="M10.608,0.812 C5.452,0.995 1.169,5.066 0.675,10.262 C0.573,11.301 0.632,12.309 0.813,13.272 L0.813,13.272 C0.813,13.272 0.829,13.385 0.882,13.601 C1.042,14.322 1.281,15.022 1.579,15.679 C2.616,18.167 5.016,22.330 10.400,26.859 C10.730,27.139 11.214,27.139 11.549,26.859 C16.933,22.335 19.333,18.173 20.376,15.674 C20.679,15.017 20.913,14.322 21.073,13.595 C21.121,13.385 21.142,13.267 21.142,13.267 L21.142,13.267 C21.264,12.621 21.328,11.958 21.328,11.280 C21.328,5.367 16.492,0.601 10.608,0.812 ZM10.975,16.492 C8.197,16.492 5.947,14.215 5.947,11.404 C5.947,8.593 8.197,6.315 10.975,6.315 C13.752,6.315 16.002,8.593 16.002,11.404 C16.002,14.215 13.752,16.492 10.975,16.492 Z"/>
</svg>
